src/public/img/landing/new/external-websites/nba.svg

<svg width="49" height="28" viewBox="0 0 49 28" fill="none" xmlns="http://www.w3.org/2000/svg">
<path d="M3.87948 0H10.4567C12.053 0 13.3381 1.28512 13.3381 2.88143V25.1186C13.3381 26.7149 12.053 28 10.4567 28H3.87948C2.28317 28 0.998047 26.7149 0.998047 25.1186V2.88143C0.998047 1.28512 2.28317 0 3.87948 0Z" fill="white"/>
<path d="M8.82323 5.1326L8.83238 5.22731C9.03082 5.34457 9.13455 5.43928 9.33744 5.57007C9.86963 5.90833 10.5237 6.50817 10.4425 8.56927C10.5958 9.02028 10.6635 9.89974 10.7988 10.1794C11.0739 10.7341 11.2633 11.0949 11.3445 11.6136C11.3445 11.6136 11.4257 12.4254 11.5294 12.484C12.0796 12.6103 11.9218 12.6644 11.9985 12.7636C12.0841 12.8719 12.4043 12.8674 12.4043 13.165C12.5171 13.3139 12.6028 13.4627 12.6614 13.6251V2.90462C12.6614 1.67788 11.6692 0.685669 10.4469 0.685669H8.33157C8.66983 0.807441 8.86376 0.951763 8.97657 1.17727C9.24705 1.19982 9.56746 1.80868 9.06671 2.7152C9.28764 2.86854 9.11626 3.09405 8.95841 3.35112C8.9088 3.4323 8.85919 3.58113 8.71035 3.57211C8.51191 3.98253 8.28183 4.37039 8.10607 4.39294C8.05652 4.45609 8.02031 4.63198 8.09698 4.71316C8.35425 4.83042 8.66532 4.98376 8.82323 5.1326Z" fill="black"/>
<path d="M10.7986 27.2859L10.7761 27.2904C11.7457 26.6995 11.1459 25.5811 10.961 24.9226L10.9971 24.8098C11.0467 24.7196 10.943 24.5077 10.943 24.5077C10.8213 24.4084 10.7942 23.8583 10.731 23.6057C10.6274 23.1953 10.9159 22.4782 10.9159 22.2347C10.9159 21.991 10.731 21.6573 10.3973 21.2334C10.316 21.1387 10.0725 19.0596 9.85602 18.5319C9.55384 17.8057 9.46358 17.9229 9.1029 17.0526C8.82772 16.4437 9.0442 15.5462 8.42188 13.4626L8.56163 13.3318C8.56163 13.3318 8.06552 11.5188 7.90309 11.0227C7.74518 10.5265 7.45215 10.495 7.45215 10.495L7.47013 10.2379C7.49274 10.1612 8.07448 8.65036 8.12409 8.60075C8.12853 8.56918 8.96296 7.9964 8.97643 8.08209C9.04401 8.45192 9.3688 10.3326 9.50855 10.6303C9.64836 10.9324 10.1311 11.8525 10.352 12.4253C9.49057 12.6373 8.84557 13.4175 8.84557 14.3421C8.84557 15.4335 9.72961 16.322 10.821 16.322C11.6553 16.322 12.377 15.8034 12.6656 15.0727L12.6611 25.0987C12.6613 26.208 11.863 27.1235 10.7986 27.2859Z" fill="black"/>
<path d="M7.63645 0.685669C6.91484 0.965293 6.81561 1.27649 6.78862 2.27772C6.66684 2.29125 6.41422 2.17399 6.49997 2.78285C6.49997 2.78285 6.54507 3.18876 6.70744 3.1211C6.58115 4.00508 6.6815 4.22632 6.09413 4.28921C5.96785 4.30274 5.81444 4.31176 5.62508 4.32078L5.56645 4.40196C4.76366 4.47863 4.36602 4.42733 3.84805 5.11004C3.64961 5.37163 3.43764 5.74145 3.17605 6.26913C3.17605 6.26913 2.93702 6.85995 2.8648 7.10349C2.63478 7.58607 2.07102 8.65496 1.90415 9.34049C1.85009 9.57501 1.7463 9.64717 1.89513 9.98543C2.11612 10.4725 1.75081 10.5988 3.00461 10.5627V10.8514C3.00461 10.8514 2.67086 11.14 2.5987 11.3114C2.53105 11.4873 2.33712 12.3487 2.3462 12.7591C2.36869 13.828 3.23919 14.7209 3.49621 15.7854L4.078 15.8666C4.39371 16.5927 5.77379 18.55 6.09407 18.8657C6.09858 18.8703 6.10309 18.8748 6.1076 18.8793C6.17969 19.0642 6.53605 19.2943 6.74345 19.5243C6.8698 19.646 7.45166 20.2775 8.22733 20.8774C8.51209 21.0975 8.81827 21.3148 9.13836 21.4998C9.12934 21.4952 9.32778 21.8921 9.42701 22.2168C9.03012 22.5369 9.80134 23.1234 10.0359 24.093C10.0494 24.2237 9.8103 24.3546 10.1667 24.6748C10.1441 26.1404 9.69767 26.9073 10.4463 27.3131H3.84805C2.64844 27.286 1.67871 26.3029 1.67871 25.0987V2.90462C1.67871 1.69141 2.64838 0.712729 3.84805 0.685669H7.63645Z" fill="black"/>
<path fill-rule="evenodd" clip-rule="evenodd" d="M16.6582 0.670074V27.2792H19.5341C19.5416 20.4267 19.697 13.5465 19.2754 6.7741L22.5909 27.2792H26.7175V0.670074H23.8698C23.8118 7.72527 24.0623 14.6819 24.5407 21.5657L21.0954 0.670074H16.6582Z" fill="black"/>
<path fill-rule="evenodd" clip-rule="evenodd" d="M41.5894 0.654312L38.7627 27.2858H42.2796L42.7398 21.9007H45.0406L45.5007 27.2858H49.0012L46.2567 0.654312H41.5894ZM43.8902 8.17142L44.7776 18.7762H43.0027L43.8902 8.17142Z" fill="black"/>
<path d="M28.9346 0.672682V27.2674H34.0784C34.9216 27.2674 37.7925 26.5306 37.7925 22.838V17.5264C37.7925 16.9668 37.7973 15.2123 36.2642 14.1814C37.2221 14.1814 37.7925 12.323 37.7925 10.6342V4.93666C37.7925 2.71672 36.4108 0.666642 33.6347 0.672682H28.9346ZM32.1063 4.07284H33.6676C34.3828 4.07284 34.6208 4.86241 34.6208 5.46966V11.6635C34.6208 12.7229 34.2725 12.803 33.5525 12.803H32.1063V4.07284ZM32.1063 15.7069H33.6676C34.3828 15.7069 34.6208 16.4965 34.6208 17.1037V22.6359C34.6208 23.3567 34.2614 23.904 33.5525 23.904L32.1063 23.9224V15.7069V15.7069Z" fill="black"/>
</svg>

<svg xmlns="http://www.w3.org/2000/svg" width="49" height="28" fill="none">
  <path fill="#fff" d="M3.88 0h6.577a2.875 2.875 0 0 1 2.881 2.881V25.12A2.875 2.875 0 0 1 10.457 28H3.879a2.875 2.875 0 0 1-2.881-2.881V2.88A2.875 2.875 0 0 1 3.879 0Z"/>
  <path fill="#000" d="m8.823 5.133.01.094c.198.118.302.212.504.343.533.338 1.187.938 1.106 3 .153.45.22 1.33.356 1.61.275.554.464.915.546 1.434 0 0 .08.811.184.87.55.126.393.18.47.28.085.108.405.103.405.401.113.149.199.298.257.46V2.905a2.216 2.216 0 0 0-2.214-2.22H8.332c.338.122.532.267.645.492.27.023.59.632.09 1.538.22.154.05.38-.109.636-.05.081-.099.23-.248.221-.198.41-.428.798-.604.82-.05.064-.086.24-.009.321.257.117.568.27.726.42Zm1.976 22.153-.023.004c.97-.59.37-1.709.185-2.367l.036-.113c.05-.09-.054-.302-.054-.302-.122-.1-.149-.65-.212-.902-.104-.41.185-1.128.185-1.371 0-.244-.185-.578-.519-1.002-.081-.094-.325-2.173-.541-2.701-.302-.726-.392-.61-.753-1.48-.275-.608-.059-1.506-.681-3.59l.14-.13s-.496-1.813-.659-2.31c-.158-.495-.45-.527-.45-.527l.017-.257c.023-.077.604-1.588.654-1.637.005-.032.839-.605.852-.519.068.37.393 2.25.533 2.548.14.302.622 1.222.843 1.795a1.982 1.982 0 0 0-1.506 1.917 1.979 1.979 0 0 0 3.82.73L12.66 25.1a2.199 2.199 0 0 1-1.862 2.187Z"/>
  <path fill="#000" d="M7.636.686c-.721.28-.82.59-.847 1.592-.122.013-.375-.104-.289.505 0 0 .045.406.207.338-.126.884-.026 1.105-.613 1.168a8.35 8.35 0 0 1-.469.032l-.059.081c-.802.077-1.2.025-1.718.708-.198.262-.41.631-.672 1.16 0 0-.239.59-.311.833-.23.483-.794 1.552-.96 2.237-.055.235-.159.307-.01.645.221.488-.144.614 1.11.578v.288s-.334.289-.406.46c-.068.176-.262 1.038-.253 1.448.023 1.069.893 1.962 1.15 3.026l.582.082c.316.726 1.696 2.683 2.016 2.999l.014.013c.072.185.428.415.635.645.127.122.709.753 1.484 1.353.285.22.591.438.911.623-.009-.005.19.392.289.717-.397.32.374.906.609 1.876.013.13-.226.262.13.582-.022 1.465-.468 2.232.28 2.638H3.848a2.221 2.221 0 0 1-2.17-2.214V2.905a2.22 2.22 0 0 1 2.17-2.22h3.788Z"/>
  <path fill="#000" fill-rule="evenodd" d="M16.658.67v26.61h2.876c.008-6.853.163-13.734-.259-20.506l3.316 20.505h4.127V.67H23.87c-.058 7.055.192 14.012.67 20.896L21.096.67h-4.437ZM41.59.654l-2.827 26.632h3.517l.46-5.385h2.3l.46 5.385h3.501L46.257.654h-4.668Zm2.3 7.517.888 10.605h-1.775l.887-10.605Z" clip-rule="evenodd"/>
  <path fill="#000" d="M28.935.673v26.594h5.143c.844 0 3.714-.736 3.714-4.429v-5.312c0-.56.005-2.314-1.528-3.345.958 0 1.528-1.858 1.528-3.547V4.937c0-2.22-1.381-4.27-4.157-4.264h-4.7Zm3.171 3.4h1.562c.715 0 .953.79.953 1.397v6.194c0 1.059-.349 1.139-1.069 1.139h-1.446v-8.73Zm0 11.634h1.562c.715 0 .953.79.953 1.397v5.532c0 .72-.36 1.268-1.069 1.268l-1.446.018v-8.215Z"/>
</svg>
